X: 05
T: Miss Jean Milligan
C: Winifred Bird Matthew
R: reel
N: Suggested tune for Mr Michael Bear's Reel
B: RSCDS "A Second Book of Graded Scottish Country Dances" (Graded 2) p.11
Z: 2011 John Chambers <jc:trillian.mit.edu>
M: 4/4
L: 1/8
K: A
E2 |: "A"A2cB "C#/A"A2ce | "D"fefg "Bm"a2gf | "A"e2c2 "F#m"dcBA | "D#/B7"c2B2 "E7"B2cB |
"F#m"A2cB "E/A"A2ce | "D"fefg "D#dim"a2gf | "E/A"eagf "E7"edcB |1 "A"c2A2 A2E2 :|2 "A"c2A2 A2"E7"e2 ||
|: "A"a2ed "C#/A"cBA2 | "D"dcde "E7"fefg | "A"a2e2 "A#/F#7"efec | "Bm"d2B2 "E7"B2e2 |
"C#/A"a2ed "A"cBA2 | "D"dcde "D#dim"f3f | "E/A"eagf "G#/E7"edcB |1 "A"c2A2 A2"E7"e2 :|2 "A"c2A2 A2 |]
